outputs/icons/charts/report_round.svg

<svg xmlns="http://www.w3.org/2000/svg" width="1200" height="1200" fill="none"><path fill="#000" d="M753.66 203.661a12.5 12.5 0 0 0-8.84-3.661H250c-55 0-99.5 45-99.5 100l-.5 700c0 55 44.5 100 99.5 100H950c55 0 100-45 100-100V505.18c0-3.32-1.315-6.497-3.66-8.841zM400 900c-27.5 0-50-22.5-50-50s22.5-50 50-50 50 22.5 50 50-22.5 50-50 50m0-200c-27.5 0-50-22.5-50-50s22.5-50 50-50 50 22.5 50 50-22.5 50-50 50m0-200c-27.5 0-50-22.5-50-50s22.5-50 50-50 50 22.5 50 50-22.5 50-50 50m312.5 50c-6.905 0-12.5-5.595-12.5-12.5V305.178c0-11.137 13.465-16.714 21.34-8.839L953.66 528.66c7.875 7.875 2.3 21.34-8.84 21.34z"/></svg>

<svg width="1200" height="1200" viewBox="0 0 1200 1200" fill="none" xmlns="http://www.w3.org/2000/svg"><path d="M753.66 203.661C751.315 201.317 748.14 200 744.82 200H250C195 200 150.5 245 150.5 300L150 1000C150 1055 194.5 1100 249.5 1100H950C1005 1100 1050 1055 1050 1000V505.18C1050 501.86 1048.685 498.683 1046.34 496.339L753.66 203.661ZM400 900C372.5 900 350 877.5 350 850C350 822.5 372.5 800 400 800C427.5 800 450 822.5 450 850C450 877.5 427.5 900 400 900ZM400 700C372.5 700 350 677.5 350 650C350 622.5 372.5 600 400 600C427.5 600 450 622.5 450 650C450 677.5 427.5 700 400 700ZM400 500C372.5 500 350 477.5 350 450C350 422.5 372.5 400 400 400C427.5 400 450 422.5 450 450C450 477.5 427.5 500 400 500ZM712.5 550C705.595 550 700 544.405 700 537.5V305.178C700 294.041 713.465 288.464 721.34 296.339L953.66 528.66C961.535 536.535 955.96 550 944.82 550H712.5Z" fill="#1D1E23"/></svg>
